X: 8
T: The Rambler
R: jig
M: 6/8
L: 1/8
K: Gmaj
E|DB,D G,2G|EDB, D2d|edB GAB|cBc AGE|DB,D G,2G|EDB, D2d|edB GAB|AGF G2:|
B|dBA GBd|ged ege|~d3 edB|{c}BAG ABc|dBA GBd|ged ege|~d3 edB|AGF G2:|


Tune 510	Setting 13436

